resources/svg/alarm.svg

<svg xmlns="http://www.w3.org/2000/svg" viewBox="0 0 24 24" fill="currentColor"><path fill="none" stroke="currentColor" stroke-width="2" d="M21,13 C21,17.971 16.971,22 12,22 C7.029,22 3,17.971 3,13 C3,8.029 7.029,4 12,4 C16.971,4 21,8.029 21,13 L21,13 Z M5.5,19.5 L2,23 L5.5,19.5 Z M18.5,19.5 L22,23 L18.5,19.5 Z M9,4 C8.29078014,2.90780142 6.88179669,2 5,2 C2.90070922,2 1,3.90070922 1,6 C1,7.88179669 1.90780142,9.29078014 3,10 M21,10 C22.0921986,9.29078014 23,7.88179669 23,6 C23,3.90070922 21.0992908,2 19,2 C17.1182033,2 15.7092199,2.90780142 15,4 M12,8 L12,13 L15,16"/></svg>

<svg viewBox="0 0 24 24"><path fill="none" stroke="currentColor" stroke-width="2" d="M21 13a9 9 0 0 1-9 9a9 9 0 0 1-9-9a9 9 0 0 1 9-9a9 9 0 0 1 9 9h0zM5.5 19.5L2 23l3.5-3.5zm13 0L22 23l-3.5-3.5zM9 4c-.71-1.092-2.118-2-4-2c-2.1 0-4 1.9-4 4c0 1.882.908 3.29 2 4m18 0c1.092-.71 2-2.118 2-4c0-2.1-1.9-4-4-4c-1.882 0-3.29.908-4 2m-3 4v5l3 3"/></svg>
